icons/1_Primary/GMX.svg

<svg xmlns="http://www.w3.org/2000/svg" width="1024" height="1024" fill="none">
   <g clip-path="url(#a)">
      <path fill="#728DBE" d="M512 1024c282.77 0 512-229.23 512-512S794.77 0 512 0 0 229.23 0 512s229.23 512 512 512Z"/>
      <path fill="#fff" d="m736.57 506.55 50.05-83.34h-51.08l-26.62 42.26-28.64-42.26h-56l59 83.24-59 93.9h56L712.2 547l37.8 53.36h50l-63.43-93.81Zm-185.08-83.34L513.5 518l-36-94.79h-45.4L401.95 600.6h45.87l14.84-102.21h.47l40.65 102.21h18.36l42.58-102.21h.56L578.2 600.6h46.11l-26.86-177.39h-45.96Zm-233.82 78.46v36.06h37.56c-2 20.24-17.28 30.61-37.09 30.61-30.14 0-46.43-27.75-46.43-55.17s15.63-55.64 45.73-55.64c18.5 0 31.74 11.17 38.08 27.94L399 467.26c-15.17-32.87-43.24-49.16-79.49-49.16-56.76 0-95.5 37.56-95.5 94.79 0 55.45 38.5 93 93.9 93 29.44 0 55.4-10.52 72.59-34.56 15.45-21.79 17.56-43.95 18-69.68l-90.83.02Z"/>
   </g>
   <defs>
      <clipPath id="a">
         <path fill="#fff" d="M0 0h1024v1024H0z"/>
      </clipPath>
   </defs>
</svg>

<svg width="1024" height="1024" viewBox="0 0 1024 1024" fill="none" xmlns="http://www.w3.org/2000/svg">
<g clip-path="url(#clip0_2_2298)">
<path d="M512 1024C794.77 1024 1024 794.77 1024 512C1024 229.23 794.77 0 512 0C229.23 0 0 229.23 0 512C0 794.77 229.23 1024 512 1024Z" fill="#728DBE"/>
<path d="M736.57 506.55L786.62 423.21H735.54L708.92 465.47L680.28 423.21H624.28L683.28 506.45L624.28 600.35H680.28L712.2 547L750 600.36H800L736.57 506.55ZM551.49 423.21L513.5 518L477.5 423.21H432.1L401.95 600.6H447.82L462.66 498.39H463.13L503.78 600.6H522.14L564.72 498.39H565.28L578.2 600.6H624.31L597.45 423.21H551.49ZM317.67 501.67V537.73H355.23C353.23 557.97 337.95 568.34 318.14 568.34C288 568.34 271.71 540.59 271.71 513.17C271.71 485.75 287.34 457.53 317.44 457.53C335.94 457.53 349.18 468.7 355.52 485.47L399 467.26C383.83 434.39 355.76 418.1 319.51 418.1C262.75 418.1 224.01 455.66 224.01 512.89C224.01 568.34 262.51 605.89 317.91 605.89C347.35 605.89 373.31 595.37 390.5 571.33C405.95 549.54 408.06 527.38 408.5 501.65L317.67 501.67Z" fill="white"/>
</g>
<defs>
<clipPath id="clip0_2_2298">
<rect width="1024" height="1024" fill="white"/>
</clipPath>
</defs>
</svg>
